icons/core/bell-fill.svg

<svg width="32" height="32" viewBox="0 0 32 32" fill="none" xmlns="http://www.w3.org/2000/svg">
<path fill-rule="evenodd" clip-rule="evenodd" d="M5.99999 12C5.99999 6.47718 10.4771 2.00003 16 2.00003C21.5228 2.00003 26 6.47718 26 12V16.5858L28.4142 19C28.7893 19.3751 29 19.8838 29 20.4142V23C29 24.1046 28.1046 25 27 25L21 25C21 27.7615 18.7614 30 16 30C13.2386 30 11 27.7615 11 25L5 25C3.89543 25 3 24.1046 3 23V20.4142C3 19.8838 3.21071 19.3751 3.58578 19L5.99999 16.5858V12ZM13 25H19C19 26.6569 17.6569 28 16 28C14.3431 28 13 26.6569 13 25Z" fill="black"/>
</svg>

<svg viewBox="0 0 32 32" xmlns="http://www.w3.org/2000/svg"><path fill-rule="evenodd" d="M6 12C6 6.477 10.477 2 16 2s10 4.477 10 10v4.586L28.414 19A2 2 0 0129 20.414V23a2 2 0 01-2 2h-6a5 5 0 11-10 0H5a2 2 0 01-2-2v-2.586A2 2 0 013.586 19L6 16.586V12zm7 13h6a3 3 0 11-6 0z"/></svg>
